modules/stroke-7/icons/copy-file.svg

<?xml version="1.0" encoding="utf-8"?>
<!-- Generated by IcoMoon.io -->
<!DOCTYPE svg PUBLIC "-//W3C//DTD SVG 1.1//EN" "http://www.w3.org/Graphics/SVG/1.1/DTD/svg11.dtd">
<svg version="1.1" xmlns="http://www.w3.org/2000/svg" xmlns:xlink="http://www.w3.org/1999/xlink" width="32" height="32" viewBox="0 0 32 32">
<g id="icomoon-ignore">
</g>
<path d="M27.845 7.385l-5.384-5.384h-11.845v4.307h-6.461v23.69h17.229v-4.307h6.461v-18.306zM22.461 3.524l3.861 3.861h-3.861v-3.861zM5.232 28.922v-21.537h9.692v5.384h5.384v16.153h-15.076zM16 7.831l3.861 3.861h-3.861v-3.861zM21.384 24.615v-12.922l-5.384-5.384h-4.307v-3.231h9.692v5.384h5.384v16.153h-5.384z" fill="#000000"></path>
</svg>

<svg xmlns="http://www.w3.org/2000/svg" width="32" height="32" viewBox="0 0 32 32"><path d="M27.845 7.385l-5.384-5.384H10.616v4.307H4.155v23.69h17.229v-4.307h6.461V7.385zm-5.384-3.861l3.861 3.861h-3.861V3.524zM5.232 28.922V7.385h9.692v5.384h5.384v16.153H5.232zM16 7.831l3.861 3.861H16V7.831zm5.384 16.784V11.693L16 6.309h-4.307V3.078h9.692v5.384h5.384v16.153h-5.384z"/></svg>
